img/general/logos/volvo_logo_black.svg

<svg width="61" height="61" viewBox="0 0 61 61" fill="none" xmlns="http://www.w3.org/2000/svg">
<path d="M46.5677 0.119415C46.6336 0.185299 47.4648 0.778843 48.4013 1.45182C49.3507 2.12479 50.3143 2.8107 50.5514 2.99541L50.9737 3.31189L49.496 4.98725C48.6784 5.91082 48.0054 6.67616 47.9924 6.70201C47.9789 6.72849 47.333 6.31965 46.5412 5.80492C42.5569 3.20599 38.0585 1.66239 33.0589 1.17475C31.4365 1.01651 28.9693 1.14827 26.2387 1.53125C15.0253 3.1007 5.51433 11.1216 2.04478 21.952C1.01531 25.1445 0.659424 27.5458 0.659424 31.1336C0.659424 33.9172 0.844138 35.632 1.37181 37.9273C3.74661 48.1113 11.411 56.4357 21.3443 59.6146C24.5368 60.6435 26.9375 61 30.5259 61C35.4596 61 39.3644 60.1029 43.6917 57.9787C52.662 53.5726 58.6252 45.3806 60.1553 35.3543C60.4453 33.4942 60.4853 29.1276 60.2341 27.3734C59.5611 22.7167 57.9258 18.3107 55.538 14.7352L54.6674 13.4293L56.2504 11.5957L57.8205 9.74857L59.2982 11.9651C60.1029 13.1787 60.8153 14.234 60.8812 14.3135C60.9471 14.3794 61 11.3322 61 7.21614V-3.43323e-05H53.7174C49.5225 0.000579834 46.4883 0.0535355 46.5677 0.119415ZM32.9007 11.6228C38.1115 12.2693 43.0058 15.1053 46.1059 19.2872C46.8448 20.2896 47.7948 21.8597 48.1636 22.7174L48.3219 23.0868H30.5259H12.7299L12.8881 22.7174C13.2576 21.8597 14.2076 20.2902 14.9458 19.2872C18.0066 15.1718 22.9538 12.2693 28.0193 11.6228C29.2858 11.4646 31.6206 11.4516 32.9007 11.6228ZM48.1765 39.2733C47.8071 40.1174 46.6859 41.951 45.9865 42.8617C38.8232 52.2279 25.1827 53.1379 16.793 44.8406C15.2494 43.3105 13.6399 41.0152 12.8881 39.2868L12.7299 38.9174H30.5259H48.3348L48.1765 39.2733Z" fill="black"/>
</svg>

<svg width="61" height="61" fill="none" xmlns="http://www.w3.org/2000/svg"><path d="M46.568.12c.066.065.897.659 1.833 1.332.95.673 1.913 1.359 2.15 1.543l.423.317-1.478 1.675c-.818.924-1.49 1.69-1.504 1.715-.013.026-.659-.382-1.45-.897-3.985-2.599-8.483-4.143-13.483-4.63-1.622-.158-4.09-.027-6.82.356-11.214 1.57-20.725 9.59-24.194 20.421-1.03 3.192-1.386 5.594-1.386 9.182 0 2.783.185 4.498.713 6.793C3.747 48.111 11.41 56.436 21.344 59.615 24.537 60.644 26.937 61 30.526 61c4.934 0 8.838-.897 13.166-3.021 8.97-4.406 14.933-12.598 16.463-22.625.29-1.86.33-6.226.08-7.98-.674-4.657-2.31-9.063-4.697-12.639l-.87-1.306 1.582-1.833 1.57-1.847 1.478 2.216c.805 1.214 1.517 2.269 1.583 2.348.066.066.119-2.98.119-7.097V0h-7.283c-4.194 0-7.229.054-7.15.12zM32.9 11.622c5.21.646 10.105 3.482 13.205 7.664.739 1.003 1.689 2.573 2.058 3.43l.158.37H12.73l.158-.37c.37-.857 1.32-2.427 2.058-3.43 3.06-4.115 8.008-7.018 13.073-7.664 1.267-.158 3.602-.171 4.882 0zm15.275 27.65c-.369.844-1.49 2.678-2.19 3.589-7.163 9.366-20.803 10.276-29.193 1.979-1.544-1.53-3.153-3.826-3.905-5.554l-.158-.37h35.606l-.159.356z" fill="#000"/></svg>
